X:167 
T:Pomeroy Fiddler* (reel), The
C:M.McDermott
B:CRE4.193 (unnamed)
F:file ID: cre.4/167pom_f
N:Apparently "Master" McDermott didn't put a name on
this composition so I have helped out a bit. Pomeroy
(Co. Tyrone) was McDermott's home town.
L:1/8
M:4/4
Q:180
R:reel
K:Em
BE~E2 B^cdB|AF~F2 DFAF|Eeed egfe|dBAF EFGA|
BE~E2 B^cdB|AF~F2 DFAF|Eeed egfe|dBAF FE E2 ||
ed^cd eaag|fB~B2 gefd|efge abag|edBA Beef|
ed^cd eaag|fB~B2 g2 (3efg|abag efge|dBAF FE E2 ||

%%%

